X:1
T:Ac-Dc Current
C:1937 – Benny Goodman / Lionel Hampton / Charlie Christian
Z:© www.realbook.site
L:1/8
M:2/2
I:linebreak $
K:G
V:1 treble nm=" " snm=" "
V:1
 E2- |:"C9" EEG_B d2 B2 | d2 _Bd- d2 D2- |"G6" DDG=B d2 B2 | d2 Bd- d2 D2- |$"D7" DDFA d2 A2 | %6
 d2 Ad- d2 D2- |1"G6" DDGB d2 B2 | d2 Bd- d2 E2 :|2$"D7" DDGB"Am7/D" d2 c^A ||"G6" Bdeg- g2 z2 |] %11

